X:307
T:Reel 307
M:4/4
K:Dmaj
L:1/8
D>F (3FEF DFAD|F>A, (3A,A,A, GA,B,C|D>F (3DEF dFFD|EA,A,C D2AG|F>D (3DDD FDEC|A,D (3DDD d2cd|eded cABA|GFED CDEC|A>d (3dcd A>F (3DDD |ADFA BAGF|A>E (3EEE E>E (3GFE |DEFA B2AG|A>d (3dcd f>d (3dcd |Adcd BdAd|gfed cded|BGEC D2|
